rospo-light/64x64/apps/cs-applets.svg

<?xml version="1.0" encoding="UTF-8"?>
<svg xmlns="http://www.w3.org/2000/svg" xmlns:xlink="http://www.w3.org/1999/xlink" width="48pt" height="48pt" viewBox="0 0 48 48" version="1.1">
<g id="surface1">
<path style=" stroke:none;fill-rule:evenodd;fill:rgb(37.254902%,48.627451%,54.117647%);fill-opacity:1;" d="M 11.207031 2.847656 L 36.792969 2.847656 C 41.40625 2.847656 45.152344 6.59375 45.152344 11.207031 L 45.152344 36.792969 C 45.152344 41.40625 41.40625 45.152344 36.792969 45.152344 L 11.207031 45.152344 C 6.59375 45.152344 2.847656 41.40625 2.847656 36.792969 L 2.847656 11.207031 C 2.847656 6.59375 6.59375 2.847656 11.207031 2.847656 Z M 11.207031 2.847656 "/>
<path style=" stroke:none;fill-rule:nonzero;fill:rgb(37.254902%,48.627451%,54.117647%);fill-opacity:1;" d="M 45 38.25 L 45 9.75 C 45 8.503906 43.996094 7.5 42.75 7.5 L 5.25 7.5 C 4.003906 7.5 3 8.503906 3 9.75 L 3 38.25 C 3 39.496094 4.003906 40.5 5.25 40.5 L 42.75 40.5 C 43.996094 40.5 45 39.496094 45 38.25 Z M 45 38.25 "/>
<path style=" stroke:none;fill-rule:nonzero;fill:rgb(100%,100%,100%);fill-opacity:1;" d="M 10 30 L 14 30 C 14.550781 30 15 30.449219 15 31 L 15 35 C 15 35.550781 14.550781 36 14 36 L 10 36 C 9.449219 36 9 35.550781 9 35 L 9 31 C 9 30.449219 9.449219 30 10 30 Z M 10 30 "/>
<path style=" stroke:none;fill-rule:nonzero;fill:rgb(100%,100%,100%);fill-opacity:1;" d="M 18 30 L 22 30 C 22.550781 30 23 30.449219 23 31 L 23 35 C 23 35.550781 22.550781 36 22 36 L 18 36 C 17.449219 36 17 35.550781 17 35 L 17 31 C 17 30.449219 17.449219 30 18 30 Z M 18 30 "/>
<path style=" stroke:none;fill-rule:nonzero;fill:rgb(100%,100%,100%);fill-opacity:1;" d="M 26 30 L 30 30 C 30.550781 30 31 30.449219 31 31 L 31 35 C 31 35.550781 30.550781 36 30 36 L 26 36 C 25.449219 36 25 35.550781 25 35 L 25 31 C 25 30.449219 25.449219 30 26 30 Z M 26 30 "/>
<path style=" stroke:none;fill-rule:nonzero;fill:rgb(100%,100%,100%);fill-opacity:1;" d="M 34 30 L 38 30 C 38.550781 30 39 30.449219 39 31 L 39 35 C 39 35.550781 38.550781 36 38 36 L 34 36 C 33.449219 36 33 35.550781 33 35 L 33 31 C 33 30.449219 33.449219 30 34 30 Z M 34 30 "/>
</g>
</svg>

<?xml version="1.0" encoding="UTF-8" standalone="no"?>
<svg
   xmlns:dc="http://purl.org/dc/elements/1.1/"
   xmlns:cc="http://creativecommons.org/ns#"
   xmlns:rdf="http://www.w3.org/1999/02/22-rdf-syntax-ns#"
   xmlns:svg="http://www.w3.org/2000/svg"
   xmlns="http://www.w3.org/2000/svg"
   xmlns:sodipodi="http://sodipodi.sourceforge.net/DTD/sodipodi-0.dtd"
   xmlns:inkscape="http://www.inkscape.org/namespaces/inkscape"
   height="32"
   width="32"
   version="1"
   id="svg30"
   sodipodi:docname="cairo-dock.svg"
   inkscape:version="0.92.1 r">
  <metadata
     id="metadata36">
    <rdf:RDF>
      <cc:Work
         rdf:about="">
        <dc:format>image/svg+xml</dc:format>
        <dc:type
           rdf:resource="http://purl.org/dc/dcmitype/StillImage" />
      </cc:Work>
    </rdf:RDF>
  </metadata>
  <defs
     id="defs34" />
  <sodipodi:namedview
     pagecolor="#ffffff"
     bordercolor="#666666"
     borderopacity="1"
     objecttolerance="10"
     gridtolerance="10"
     guidetolerance="10"
     inkscape:pageopacity="0"
     inkscape:pageshadow="2"
     inkscape:window-width="1680"
     inkscape:window-height="963"
     id="namedview32"
     showgrid="false"
     inkscape:zoom="7.375"
     inkscape:cx="-38.271676"
     inkscape:cy="16.533387"
     inkscape:window-x="0"
     inkscape:window-y="0"
     inkscape:window-maximized="1"
     inkscape:current-layer="svg30" />
  <rect
     style="opacity:1;fill:#5f7c8a;fill-opacity:1;fill-rule:evenodd;stroke:none;stroke-width:1.03534329;stroke-linecap:round;stroke-linejoin:bevel;stroke-miterlimit:4;stroke-dasharray:none;stroke-dashoffset:0;stroke-opacity:1"
     id="rect4497-3"
     width="28.203388"
     height="28.203388"
     x="1.8983059"
     y="1.8983059"
     ry="5.575182" />
  <rect
     ry="1.5"
     style="enable-background:new"
     rx="1.5"
     transform="matrix(0,-1,-1,0,0,0)"
     height="28"
     width="22"
     y="-30"
     x="-27"
     fill="#5f7c8a"
     id="rect2" />
  <g
     fill="#fff"
     transform="scale(.66667)"
     id="g26">
    <path
       d="m10 30h4c0.554 0 1 0.446 1 1v4c0 0.554-0.446 1-1 1h-4c-0.554 0-1-0.446-1-1v-4c0-0.554 0.446-1 1-1z"
       id="path18" />
    <path
       d="m18 30h4c0.554 0 1 0.446 1 1v4c0 0.554-0.446 1-1 1h-4c-0.554 0-1-0.446-1-1v-4c0-0.554 0.446-1 1-1z"
       id="path20" />
    <path
       d="m26 30h4c0.554 0 1 0.446 1 1v4c0 0.554-0.446 1-1 1h-4c-0.554 0-1-0.446-1-1v-4c0-0.554 0.446-1 1-1z"
       id="path22" />
    <path
       d="m34 30h4c0.554 0 1 0.446 1 1v4c0 0.554-0.446 1-1 1h-4c-0.554 0-1-0.446-1-1v-4c0-0.554 0.446-1 1-1z"
       id="path24" />
  </g>
</svg>
